X:1
T:My Only Plea
T:Charles Hutchinson Gabriel
T:My Only Plea
T:Public Domain
T:Public Domain
C:Charles Hutchinson Gabriel
Z:Public Domain
%%score ( 1 2 ) ( 3 4 )
L:1/8
M:4/4
K:Ab
V:1 treble 
V:2 treble 
V:3 bass 
V:4 bass 
V:1
 [CE]2 | [Ec]3 [=D=B] [Ec][CA][CE][CF] | [DG]6 E2 | [Fd]3 [Fd] [Gd]2 [Ed]2 | [Ec]6 [CE]2 | %5
w: 1.~O|theme with love and mer- cy|fraught, Sal-|tion full and free,|That Christ|
w: 2.~When|dread- ful sin my soul as-|sails, And|shall com- pass me,|That Christ|
w: 3.~And|when be- fore the throne I|stand, And|ment set shall be,|That Christ|
 [Ec]3 [=D=B] [Ec][CA]E[EF] | [EG]6 [EG]2 | [=DFB]6 [DF]2 | [_DEB]6 z2 || %9
w: up- on the cross has wrought|me, for|me: This|shall|
w: o’er sin and death pre- vails|me, for|me: *||
w: ful- filled the law’s com- mand|me, for|me: *||
"^Refrain" [Ee]3 [Ec] [DB][CA][DB][Ec] | (DDEE D2) z2 | [Ed]3 [DB] [DG][DE][DF][DG] | %12
w: be my on- ly plea, This|shall * * * *|my on- ly plea, That Christ|
w: |||
w: |||
 (CCDD E2) [DE]2 | [CA]3 [EA] [EB][EB] [Ec]>[Ed] | [Ee]6 [Fd]2 | (EE A4) [EB]2 | [EA]6 |] %17
w: was * * * * cru-|fied for me, For me, for|me. *|||
w: |||||
w: |||||
V:2
 x2 | x8 | x6 E2 | x8 | x8 | x6 E x | x8 | x8 | x8 || x8 | F6 x2 | x8 | E6 x2 | x8 | x8 | c6 x2 | %16
w: ||va-|||For|||||be||ci-||||
w: ||death|||For|||||||||||
w: ||judg-|||For|||||||||||
 x6 |] %17
w: |
w: |
w: |
V:3
 [A,,A,]2 | [A,,A,]3 [A,,A,] [A,,A,][A,,A,][A,,A,][A,,A,] | [E,B,]6 [E,G,]2 | %3
w: ~|~ ~ ~ ~ ~ ~|~ ~|
 [E,G,]3 [E,G,] [E,B,]2 [E,G,]2 | A,6 [A,,A,]2 | [A,,A,]3 [A,,A,] [A,,A,][A,,A,][C,A,][_C,A,] | %6
w: ~ ~ ~ ~|~ ~|~ ~ ~ ~ ~ ~|
 [B,,B,]6 [B,,B,]2 | [B,,A,]6 [B,,A,]2 | [E,G,]6 z2 || [A,C]3 A, A,A,A,A, | %10
w: ~ ~|~ ~|~|~ ~ ~ ~ ~ ~|
 [D,A,][D,A,][C,=A,][C,A,] [B,,B,]2 z2 | [E,G,]3 [E,G,] [E,B,][E,G,][E,G,][E,G,] | %12
w: ~ ~ ~ ~ ~|~ my on- ly plea ~|
 [A,,A,][A,,A,][B,,G,][B,,G,] [C,A,]2 [B,,G,]2 | [A,,A,]3 [C,A,] [E,G,][E,G,] A,>[A,B,] | %14
w: ~ ~ ~ ~ ~ ~|~ For me, for me *|
 [A,C]6 [D,A,]2 | [E,A,][E,A,] [E,E]4 [E,D]2 | [A,,A,C]6 |] %17
w: |||
V:4
 x2 | x8 | x8 | x8 | A,6 x2 | x8 | x8 | x8 | x8 || x3 A, A,A,A,A, | x8 | x8 | x8 | x6 A,3/2 x/ | %14
w: ||||~|||||my on- ly plea ~|||||
 x8 | x8 | x6 |] %17
w: |||

